resources/images/toolbar_open_dark.svg

<svg width="40" height="40" viewBox="0 0 40 40" fill="none" xmlns="http://www.w3.org/2000/svg">
<path d="M34.923 10.2501C34.9133 10.2326 34.9023 10.2159 34.89 10.2001C34.8386 10.1296 34.7697 10.0737 34.69 10.0381L19.69 4.03808C19.5706 3.99024 19.4374 3.99024 19.318 4.03808L4.318 10.0381C4.23834 10.0737 4.16939 10.1296 4.118 10.2001C4.10574 10.2159 4.09471 10.2326 4.085 10.2501C4.03375 10.3238 4.0043 10.4104 4 10.5001V28.5001C4.00226 28.5472 4.0117 28.5938 4.028 28.6381C4.03051 28.6563 4.03418 28.6743 4.039 28.6921L4.049 28.7071C4.07377 28.7605 4.1076 28.8092 4.149 28.8511H4.157C4.20232 28.8938 4.25522 28.9278 4.313 28.9511L19.302 34.9511H19.308C19.4274 34.9989 19.5606 34.9989 19.68 34.9511H19.686L21.675 34.1511C21.7954 34.0999 21.8909 34.0036 21.9411 33.8828C21.9913 33.762 21.9921 33.6263 21.9435 33.5049C21.8948 33.3835 21.8005 33.286 21.6807 33.2333C21.561 33.1806 21.4254 33.1769 21.303 33.2231L20 33.7621V16.8391L34 11.2391V21.5001C34 21.6327 34.0527 21.7599 34.1464 21.8536C34.2402 21.9474 34.3674 22.0001 34.5 22.0001C34.6326 22.0001 34.7598 21.9474 34.8536 21.8536C34.9473 21.7599 35 21.6327 35 21.5001V10.5001C34.9979 10.4112 34.9713 10.3247 34.923 10.2501ZM19 33.7621L5 28.1621V11.2391L19 16.8391V33.7621ZM19.5 15.9621L5.846 10.5001L19.5 5.03908L33.153 10.5001L19.5 15.9621Z" fill="#B6B6B6"/>
<path d="M33.5 24H25.5C25.1022 24 24.7206 24.158 24.4393 24.4393C24.158 24.7206 24 25.1022 24 25.5V33.5C24 33.8978 24.158 34.2794 24.4393 34.5607C24.7206 34.842 25.1022 35 25.5 35H33.5C33.8978 35 34.2794 34.842 34.5607 34.5607C34.842 34.2794 35 33.8978 35 33.5V25.5C35 25.1022 34.842 24.7206 34.5607 24.4393C34.2794 24.158 33.8978 24 33.5 24ZM34 33.5C34 33.6326 33.9473 33.7598 33.8536 33.8536C33.7598 33.9473 33.6326 34 33.5 34H25.5C25.3674 34 25.2402 33.9473 25.1464 33.8536C25.0527 33.7598 25 33.6326 25 33.5V25.5C25 25.3674 25.0527 25.2402 25.1464 25.1464C25.2402 25.0527 25.3674 25 25.5 25H33.5C33.6326 25 33.7598 25.0527 33.8536 25.1464C33.9473 25.2402 34 25.3674 34 25.5V33.5Z" fill="#FF7C3F"/>
<path d="M32.5 29H30V26.5C30 26.3674 29.9473 26.2402 29.8536 26.1464C29.7598 26.0527 29.6326 26 29.5 26C29.3674 26 29.2402 26.0527 29.1464 26.1464C29.0527 26.2402 29 26.3674 29 26.5V29H26.5C26.3674 29 26.2402 29.0527 26.1464 29.1464C26.0527 29.2402 26 29.3674 26 29.5C26 29.6326 26.0527 29.7598 26.1464 29.8536C26.2402 29.9473 26.3674 30 26.5 30H29V32.5C29 32.6326 29.0527 32.7598 29.1464 32.8536C29.2402 32.9473 29.3674 33 29.5 33C29.6326 33 29.7598 32.9473 29.8536 32.8536C29.9473 32.7598 30 32.6326 30 32.5V30H32.5C32.6326 30 32.7598 29.9473 32.8536 29.8536C32.9473 29.7598 33 29.6326 33 29.5C33 29.3674 32.9473 29.2402 32.8536 29.1464C32.7598 29.0527 32.6326 29 32.5 29Z" fill="#FF7C3F"/>
</svg>

<svg xmlns="http://www.w3.org/2000/svg" width="40" height="40" viewBox="0 0 40 40"><path d="M34.923,10.25a.392.392,0,0,0-.033-.05.5.5,0,0,0-.2-.162l0,0-15-6a.5.5,0,0,0-.372,0l-15,6,0,0a.5.5,0,0,0-.2.162.392.392,0,0,0-.033.05A.478.478,0,0,0,4,10.5v18a.464.464,0,0,0,.028.138.429.429,0,0,0,.011.054l.01.015a.51.51,0,0,0,.1.144l.008,0a.5.5,0,0,0,.156.1l0,0,14.989,6,0,0,.006,0a.5.5,0,0,0,.372,0l.006,0,0,0,1.989-.8a.5.5,0,0,0-.372-.928L20,33.762V16.839l14-5.6V21.5a.5.5,0,0,0,1,0v-11A.481.481,0,0,0,34.923,10.25ZM19,33.762l-14-5.6V11.239l14,5.6Zm.5-17.8L5.846,10.5,19.5,5.039,33.153,10.5Z" style="fill:#b6b6b6"/><path d="M33.5,24h-8A1.5,1.5,0,0,0,24,25.5v8A1.5,1.5,0,0,0,25.5,35h8A1.5,1.5,0,0,0,35,33.5v-8A1.5,1.5,0,0,0,33.5,24Zm.5,9.5a.5.5,0,0,1-.5.5h-8a.5.5,0,0,1-.5-.5v-8a.5.5,0,0,1,.5-.5h8a.5.5,0,0,1,.5.5Z" style="fill:#009688"/><path d="M32.5,29H30V26.5a.5.5,0,0,0-1,0V29H26.5a.5.5,0,0,0,0,1H29v2.5a.5.5,0,0,0,1,0V30h2.5a.5.5,0,0,0,0-1Z" style="fill:#009688"/></svg>
